!!!COM: Ives, Charles
!!!OTL: Four Melodies for Voice and Piano
!!!OMV: No. 11: The Housatonic at Stockbridge (no. 106)
!!!example: 270
!!!work: Ive-45
**kern	**kern	**dynam	**kern	**dynam
*clefF4	*clefG2	*	*clefG2	*
*k[]	*k[]	*	*k[]	*
*C:	*C:	*	*C:	*
*M4/4	*M4/4	*	*M4/4	*
*MM121	*MM121	*	*MM121	*
=1	=1	=1	=1	=1
*^	*^	*	*	*
(2F	1CCC#X 1GGG#X 1CC#X 1GG#X	(8aL	4.a	pppp mp	1r	.
.	.	8gg 8bb	.	.	.	.
.	.	8ff) 8aa	.	.	.	.
.	.	(8gJ	4.g	.	.	.
2D#X)	.	8ffL 8aa	.	.	.	.
.	.	8cc) 8gg	.	.	.	.
.	.	(8f	[4f	.	.	.
.	.	8ffJ 8aa	.	.	.	.
=2	=2	=2	=2	=2	=2	=2
(2F	1CC#X 1GG#X	8dddL)	8f]	.	1r	.
.	.	(8g	4.g	.	.	.
.	.	8ff 8aa	.	.	.	.
.	.	8eeJ) 8gg	.	.	.	.
2D#X)	.	(8aL	4.a	.	.	.
.	.	8gg 8bb	.	.	.	.
.	.	8ff) 8aa	.	.	.	.
.	.	8bJ	8b	.	.	.
*	*	*v	*v	*	*	*
=3	=3	=3	=3	=3	=3
(2G#X:	1CCC#X: 1GGG#X: 1CC#X: 1GG#X:	10c#X:L 10cc#X: 10gg#X: 10ddd: 10fff#X:	.	1r	.
*	*	*^	*	*	*
.	.	.	2r	.	.	.
.	.	.	.	.	.	.
.	.	[10a	.	.	.	.
.	.	10a 10ccc# 10eee	.	.	.	.
.	.	10bb-XJ 10ddd	.	.	.	.
.	.	(8gL	.	.	.	.
2A#X)	.	.	.	.	.	.
*	*	*v	*v	*	*	*
.	.	8ee-X 8ggn	.	.	.
.	.	8ff) 8aa	.	.	.
*	*	*^	*	*	*
.	.	(8fJ	8f	.	.	.
=4	=4	=4	=4	=4	=4	=4
(4G#X	1CC#X 1GG#X	8gL	4.g	.	1r	.
.	.	8cc-X 8een	.	.	.	.
4E#X	.	8ff) 8aa	.	.	.	.
.	.	(8gJ	8g#X	.	.	.
2D#X)	.	8aL	4.a	.	.	.
.	.	8ee-X 8ggn	.	.	.	.
.	.	8cc#X) 8ff#X	.	.	.	.
.	.	(8g#J	8gn	.	.	.
=5	=5	=5	=5	=5	=5	=5
(2D#X	1CC#X 1GG#X	8ee-XL 8gg	4ryy	.	1r	.
.	.	8ff) 8aa	.	.	.	.
.	.	(8g#X	4g#X	.	.	.
.	.	8aJ	.	.	.	.
[2E#X)	.	8ee-XL 8gg	4ryy	.	.	.
.	.	8ff) 8aa#X	.	.	.	.
.	.	(8g#	4gn	.	.	.
.	.	8ffJ 8aan	.	.	.	.
=6	=6	=6	=6	=6	=6	=6
(2E#]	1CC#X 1GG#X	8ccL) 8gg	8r	.	4r	.
.	.	(8f	4.f	.	.	.
.	.	8ff 8aa	.	.	4r	.
.	.	8dddJ)	.	.	.	.
2E#X)	.	(8gL	4.g	.	4r	.
.	.	8ff 8aa	.	.	.	.
.	.	8een) 8gg	.	.	8r	.
.	.	(8anJ	8r	.	8f	mp
=7	=7	=7	=7	=7	=7	=7
(2E#X	2CC#X 2GG#X	8ggL 8bb	4r	.	8fL	.
.	.	8ff) 8aa	.	.	8fJ	.
.	.	(8b	4b	.	4f	.
.	.	8aJ	.	.	.	.
2A#X)	2EE#X 2C#X	8aa-XL 8ccc	2r	.	[2d-X	.
.	.	8gg) 8bb	.	.	.	.
.	.	(8cc#X	.	.	.	.
.	.	8bJ	.	.	.	.
*	*	*v	*v	*	*	*
=8	=8	=8	=8	=8	=8
(2E#X	1CC#X 1GG#X	8ggL) 8bb	.	4d-]	.
.	.	(8ff 8aan	.	.	.
.	.	8b	.	4r	.
.	.	8aa-XJ) 8cccn	.	.	.
2D#X)	.	8ggL 8bb	.	4r	.
.	.	8a-X	.	.	.
.	.	[8b	.	8e-XL	.
.	.	8bJ] 8gg 8bb	.	8e-J	.
*v	*v	*	*	*	*
=	=	=	=	=
*-	*-	*-	*-	*-
!!!system-decoration: s1{(s2,s3)}
!!!CDT: 1874/10/20-1954/05/19
!!!CBL: Danbury, United States
!!!CDL: New York, United States
!!!CNT: American
!!!AGN: Vocal; Solo
!!!MCN:
!!!MDT:
!!!MGN:
!!!MLC:
!!!MPD: unknown
!!!MPN: unknown
!!!ODT: unknown
!!!PDT: unknown
!!!excerpt-start-measure: 1
!!!excerpt-end-measure: 8
!!!excerpt-start-time: 0:00
!!!excerpt-end-time: 0:39
!!!EEV: 2020/01/22
!!!ONB: Converted from MusicXML on 2020/01/22
